X:99
%%etbk:tnset id:34,pos:3,rep:3x,ant:
%%etbk:wsite http://www.thesession.org/tunes/display/302
%%etbk:color #ffffcc
%%etbk:pldat 2016-04-23T17:13,2016-04-21T18:38,2014-12-06T16:28,2014-02-04T18:46,2013-11-17T16:08,2013-11-13T16:20
T: Maudabawn Chapel
Z: Piano Box Version by Martin Fleischmann
H: Created 2012-04-21 /  Last Modified 2016-04-21
M: 4/4
L: 1/8
R: reel
K: Gmaj
|: "G"!5!G3!3!D !4!EG!3!D!2!B,| !1!G,!1!A,!2!B,!3!D !4!E!2!B,!3!D!2!B,| !1!G,3!4!G !1!G2!2!B!3!d | !5!g3!4!g "C"!2!e!5!aa2 |
| "G"!4!g2!5!b!4!g "C"!2!e2!4!g!2!e | "G"!1!de{g}e!1!d !3!BAB!4!d | "C"!2!egf!5!a !4!ge!1!d!3!B | "D"!2!AcBA !1!G!2!E{G}E!1!D:|
|: "em"!1!E2!2!BE !5!dEBE | !1!E!4!d^cB !1!A!2!F!1!D!2!F | !1!E!2!E!1!EF !3!GFG!5!B | "D"!4!A!2!FF{A}F DFF{A}F |
| "em"!1!E!2!BBA !2!B3 B | -!2!B!1!A!2!G!1!A B!3!^c!4!d!2!e | "D"!3!f2!5!af !4!g!3!f!1!e!3!^c| !4!d!2!B!1!A!3!F !1!DEFD:|
|"var 1 bar 3 and 4"!1!G,!1!A,!2!B,!3!D !5!G!2!A!3!B!1!d | !3!g!4!abg eaaf |
| "var 2 bar 3 and 4"!1!G,!1!A,!2!B,!3!D !5!G!1!G!2!B!3!d | !5!g3!4!g "C"!2!e!5!aa2 |


